X:1
T:Hoggi la vita nasce
T:Giovanni Animuccia
T:Source : Secondo libro delle Laude spirituali a tre et a quattro voci---Roma---A.Gardano---1583. Editor : André Vierendeels (26/11/17). Notes : Original clefs : C1, C2, C4 Editorial accidentals above the staff Music compiled by Francisco Soto de Langa
T:Hoggi la vita nasce
T:©
T:©
C:Giovanni Animuccia
Z:©
%%score [ 1 2 3 ]
L:1/8
Q:1/4=120
M:2/2
K:C
V:1 treble nm="Soprano" snm="S"
V:2 treble nm="Alto" snm="A"
V:3 treble-8 nm="Tenor" snm="T"
V:1
"^1)" c4 c2 c2 | c4 c4 | B8 | A8 | B4 B2 B2 | G4 G4 | A8 | G8 :: F4 F2 F2 | F4 F4 | G8 | E8 | %12
w: Hog- gi la|vi- ta|na-|sce,|chi te- me-|ra piu|mor-|te,|ve- di- ma|chiu- sa'in|fa-|scie,|
w: O di lie-|to'e fe-|li-|ce:|quand' o'l Re|de le|stel-|le,|ven- ne'à suc-|chiar ma-|mel-|le,|
 A4 A2 B2 | c4 d4 | B8 | A8 :| %16
w: o gra- ti-|o- sa|for-|te.|
w: del- la mia|ge- ni-|tri-|ce.|
V:2
"^2)""^1)" A4 A2 A2 | A4 A4 | G8 | ^F8 | G4 G2 G2 | E4 G4- | G4 ^F4 | G8 :: D4 D2 D2 | D4 D4 | D8 | %11
w: Hog- gi la|vi- ta|na-|sce,|chi te- me-|ra piu|_ mor-|te,|ve- di- ma|chiu- sa'in|fa-|
w: Nes- sin piu|mi dis-|preg-|gi,|che no- bi-|le son'|_ i-|o,|s'ho per fra-|tel- o|Di-|
 C8 | F4 F2 F2 | E4 F2 A2- |"^#""^#""^#" A2 GF G4 | A8 :| %16
w: scie,|o gra- ti-|o- sa for-||te.|
w: o,|che fia che|mi pa- reg-||gi?|
V:3
"^4)""^3)""^1)" F4 F2 F2 | F4 F4 | G8 | D8 | G4 G2 G2 | c4 e4 | d8 | G8 :: _B4 B2 B2 | _B4 B4 | %10
w: Hog- gi la|vi- ta|na-|sce,|chi te- me-|ra piu|mor-|te,|ve- di- ma|chiu- sa'in|
w: Be- ne- det-|ta si-|i|tu,|fra le don-|ne'o Ma-|ri-|a,|et be- ne-|det- to|
 G8 | A8 | F4 F2 F2 | A4 D4 | E8 | A8 :| %16
w: fa-|scie,|o gra- ti-|o- sa|for-|te.|
w: si-|a,|il tuo fi-|gliu- ol|Ge-|su.|

